X:1348
T:Mean To Me
C:Fred E. Ahlert and Roy Turk
S:Copyright 1929
M:4/4
L:1/8
Q:1/4=130
K:Bb
P:Intro
"Cm7"z2(3ccc "F7"dd3|"Cm7"z2(3ccc "F7"dd3|"BbΔ7"z2(3cBA "A7"GBGA-|"Dm7"A2FG-"G7"G4|
"Cm7"z2(3ccc "G7"dd3|"Gb7"z2(3ccc "F7"dd3|"Bb"z2(3cBA "Cm"GBGA-|"Dm7"A2FG-"EbΔ7"G4|
"Em7"z2(3AAA"A7"f2f2|"Dm7"d/2=e/2d3-"A7"d4|"C7sus4"z2(3cdc"C7" dc2d|"F7"(f/2e/2f3-f3)"F+7"_d||
P:Verse
|:"BbΔ7"d3F"G7"G4|"Cm7"z2eG- "F7"G^GAf-|"BbΔ7"f3A"E9"B4|"EbΔ9"z2g2"Ab9"Bc2^c|
"F6"d3F"G7"G4|"Cm7"ze fe "F7"f3d|"Bb"cB3-"Db9"B4|"Cm7"cdcf-"Bm7"f4|
"BbΔ7"d2FG-"G7"G4|"Cm7"z2eG- "F9"G^GAf-|"BbΔ7"f3A"E9"B4|"EbΔ9"z2g2"Ab9"Bc2^c|
"F6"d3F"G7"G4|"Cm7"z2(3efe"F7"f3d|"Bb"cB3-B4|z2"Gm"g2g2f2|
!mark!"EbΔ7"f3e-e4|"Fm7"z2g2"Bb7"(3g2_g2f2|"Eb"e8|"D7"zee2-"G9"e3 d|
"Cm7"d3c-"Am7"c4|"Ab7"z2ze"G7"ed2d-|"C7"d4GABc-|"Cm7"c2z^c-"B9"c2z2!mark!|
"BbΔ7"zd FG-"G7"G4|"Cm7"z2eG- "F9"G^GAf-|"BbΔ7"f3A"E9"B4|"EbΔ7"z2g2"Ab9"Bc2^c|
"BbΔ7"d2FG- "G7"GBdf-|"Cm7sus4"f4"F7"d4|"BbΔ7"B8-|B2z2z4:|

